X: 14238
T: Furness, The
R: waltz
M: 3/4
K: Dmajor
AG|:F3 A d2|c3 B A2|F3 E D2|B,4 D2|A,4 D2|F3 E D2|F A3 F2|E4 A2|
F3 A d2|c3 B A2|F3 E D2|B,4 D2|A,3 D F2|E3 D C2|D6|1 D4 AG:|2 D4 de||
|:f4 d2|a4 f2|e3 f d2|c3 B A2|B d3 B2|A4 d2|f3 e d2|c3 B A2|
F3 A d2|c3 B A2|F3 E D2|B,4 D2|A,3 D F2|E3 D C2|D6|1 D4 de:|2 D6||

